packages/elvis-assets-icons/icons/svg/src/tree_powerline-color.svg

<svg width="24" height="24" viewBox="0 0 24 24" fill="none" xmlns="http://www.w3.org/2000/svg">
<g clip-path="url(#clip0)">
<path fill-rule="evenodd" clip-rule="evenodd" d="M23.3904 3.99065C23.808 4.07924 24.0729 4.48146 23.9822 4.88904C23.0939 8.87834 21.4178 11.0979 19.5269 12.2508C17.6511 13.3943 15.8918 13.3785 14.6264 13.2259L14.6264 11.751C15.7116 11.8819 17.2522 11.8567 18.7071 10.9697C20.1469 10.0919 21.6428 8.28377 22.4701 4.56825C22.5608 4.16067 22.9729 3.90207 23.3904 3.99065Z" fill="#29D305"/>
<path d="M0.529252 1.03896C0.934634 0.907063 1.3728 1.12091 1.50793 1.5166C1.98498 2.91354 3.08827 4.72461 4.38403 6.35957C5.68898 8.00615 8.12088 9.91429 8.11307 9.90611C8.10527 9.89793 8.32059 10.2015 8.11307 10.5661C7.90555 10.9307 7.36158 11.2265 7.36158 11.2265C6.05982 10.5206 4.49864 8.97274 3.16008 7.28377C1.81232 5.58319 0.594479 3.61817 0.0399143 1.99424C-0.0952128 1.59855 0.123871 1.17086 0.529252 1.03896Z" fill="#29D305"/>
<path d="M5.86201 22.2142C5.5219 22.0285 5.40029 21.6083 5.59057 21.2763L6.62468 19.4721L1.72262 16.7952C1.44741 16.6449 1.22988 16.4071 1.10886 16.1252C0.963143 15.7866 0.961997 15.4122 1.1042 15.0719C1.24687 14.7307 1.51658 14.4653 1.86345 14.3231L6.61998 12.3626C6.36771 12.2175 6.16421 11.9948 6.04514 11.7339C5.89256 11.3979 5.883 11.0231 6.01946 10.6796C6.15509 10.3357 6.41961 10.0643 6.76467 9.9158L10.6374 8.24026L10.5552 8.1954C10.3035 8.05688 10.1145 7.86525 9.98506 7.61873C9.81352 7.29132 9.78284 6.91764 9.89857 6.56706C10.0143 6.21648 10.263 5.93116 10.5993 5.76417L15.2823 3.4277C15.4485 3.34474 15.6265 3.29563 15.8126 3.28145C16.0927 3.25959 16.3693 3.31903 16.6133 3.45227C17.0273 3.67837 17.2965 4.08755 17.3336 4.5479L17.7436 9.6666C17.7657 9.93869 17.7052 10.2079 17.5683 10.4468C17.1882 11.11 16.326 11.3477 15.6466 10.9767L15.5644 10.9319L16.128 15.0299C16.1676 15.3222 16.1085 15.6247 15.9623 15.8818C15.588 16.5386 14.7428 16.7804 14.0662 16.4309L14.8422 21.4136C14.8898 21.7165 14.831 22.0298 14.6767 22.2971C14.492 22.6174 14.1911 22.849 13.8277 22.9485C13.466 23.0469 13.0863 23.0037 12.7585 22.8247L7.85559 20.1474L6.82286 21.9492C6.63258 22.2812 6.20212 22.3999 5.86201 22.2142ZM8.56879 11.8475C8.8021 11.9749 8.94398 12.2261 8.92947 12.4867C8.9145 12.748 8.74573 12.9823 8.49902 13.0834L2.41203 15.5923C2.41203 15.5923 13.4489 21.6182 13.4497 21.6187L12.4547 15.2435C12.4143 14.9845 12.5305 14.7216 12.7504 14.5732C12.9703 14.4248 13.2638 14.4114 13.4971 14.5388L14.7294 15.2117L13.978 9.74761C13.9428 9.48726 14.059 9.23378 14.2805 9.08627C14.502 8.93876 14.7875 8.9262 15.0225 9.05451L16.3369 9.7723L15.9264 4.6544L11.2422 6.99122L12.5582 7.70991C12.7932 7.83821 12.9313 8.08101 12.9192 8.34291C12.9067 8.60562 12.7462 8.83487 12.4996 8.94135L7.33604 11.1754L8.56833 11.8483L8.56879 11.8475Z" fill="black"/>
</g>
<defs>
<clipPath id="clip0">
<path d="M0 0H24V24H0V0Z" fill="white"/>
</clipPath>
</defs>
</svg>

<svg width="24" height="24" fill="none" xmlns="http://www.w3.org/2000/svg"><g clip-path="url(#clip0)"><path fill-rule="evenodd" clip-rule="evenodd" d="M23.39 3.99c.418.09.683.491.592.899-.888 3.99-2.564 6.209-4.455 7.362-1.876 1.143-3.635 1.128-4.9.975V11.75c1.085.13 2.625.106 4.08-.781 1.44-.878 2.936-2.686 3.763-6.402a.774.774 0 01.92-.577z" fill="#29D305"/><path d="M.53 1.039a.778.778 0 01.978.478c.477 1.397 1.58 3.208 2.876 4.843 1.305 1.646 3.737 3.554 3.73 3.546-.009-.008.207.295 0 .66-.208.365-.752.66-.752.66-1.302-.705-2.863-2.253-4.202-3.942C1.812 5.584.594 3.618.04 1.994a.751.751 0 01.49-.955z" fill="#29D305"/><path d="M5.862 22.214a.68.68 0 01-.271-.938l1.034-1.804-4.902-2.677a1.396 1.396 0 01-.614-.67 1.338 1.338 0 01-.005-1.053c.143-.341.413-.607.76-.749l4.756-1.96a1.404 1.404 0 01-.575-.63 1.336 1.336 0 01-.026-1.053c.136-.344.4-.616.746-.764l3.872-1.676-.082-.045a1.376 1.376 0 01-.57-.576A1.342 1.342 0 019.9 6.567c.115-.35.364-.636.7-.803l4.683-2.336a1.433 1.433 0 011.331.025c.414.225.684.635.72 1.095l.41 5.119c.023.272-.038.54-.175.78-.38.663-1.242.9-1.921.53l-.083-.045.564 4.098c.04.292-.02.595-.166.852a1.433 1.433 0 01-1.896.549l.776 4.983c.048.302-.011.616-.165.883a1.434 1.434 0 01-1.918.528l-4.903-2.678-1.033 1.802a.716.716 0 01-.961.265zm2.707-10.366a.691.691 0 01.36.639.693.693 0 01-.43.596l-6.087 2.51 11.038 6.026-.995-6.376a.686.686 0 01.295-.67.726.726 0 01.747-.034l1.232.673-.751-5.464a.681.681 0 01.303-.662.718.718 0 01.742-.031l1.314.717-.41-5.118-4.685 2.337 1.316.719A.683.683 0 0112.5 8.94l-5.164 2.234 1.232.673z" fill="#000"/></g><defs><clipPath id="clip0"><path d="M0 0h24v24H0V0z" fill="#fff"/></clipPath></defs></svg>
